assets/moonriver/logo.svg

<svg width="64" height="64" viewBox="0 0 64 64" fill="none" xmlns="http://www.w3.org/2000/svg">
<circle cx="32" cy="32" r="32" fill="#0E132E"/>
<g clip-path="url(#clip0)">
<path d="M31.1516 8C26.2321 8 21.5141 9.89089 18.0354 13.2567C14.5568 16.6225 12.6025 21.1875 12.6025 25.9475C12.6025 27.0817 12.7122 28.2133 12.9304 29.3276L15.3266 27.7413C19.5402 24.9457 26.3731 24.9457 30.5866 27.7413L33.1014 29.4069L34.4634 30.3124C38.2608 32.831 44.4127 32.831 48.21 30.3124L49.3287 29.5729C49.8811 26.9639 49.8269 24.2688 49.1702 21.6825C48.5134 19.0963 47.2705 16.6838 45.5314 14.6196C43.7922 12.5554 41.6005 10.8913 39.1148 9.74767C36.629 8.60405 33.9116 8.00959 31.1592 8.00732L31.1516 8Z" fill="#F2B705"/>
<path d="M41.5766 36.731C38.7819 36.731 36.1095 35.9988 34.0967 34.6565L30.2224 32.0879C28.3685 30.8542 25.8778 30.1745 23.2155 30.1745C20.5532 30.1745 18.0624 30.8505 16.2072 32.0879L13.7026 33.7474C13.4646 33.9052 13.1716 33.965 12.888 33.9138C12.6044 33.8625 12.3535 33.7044 12.1904 33.4741C12.0274 33.2438 11.9655 32.9603 12.0185 32.6859C12.0715 32.4116 12.2349 32.1688 12.4729 32.011L14.9776 30.3551C17.1934 28.8908 20.1168 28.0781 23.2155 28.0781C26.3141 28.0781 29.2375 28.8859 31.4533 30.3551L35.3314 32.925C37.213 34.0381 39.3756 34.6271 41.581 34.6271C43.7865 34.6271 45.9491 34.0381 47.8307 32.925L49.3012 31.9488C49.419 31.8682 49.5523 31.811 49.6931 31.7807C49.834 31.7504 49.9797 31.7475 50.1217 31.7721C50.2638 31.7968 50.3993 31.8485 50.5205 31.9243C50.6417 32.0001 50.7461 32.0985 50.8276 32.2137C50.9091 32.3289 50.9661 32.4587 50.9954 32.5954C51.0246 32.7321 51.0254 32.8731 50.9978 33.0102C50.9702 33.1472 50.9147 33.2776 50.8345 33.3937C50.7544 33.5098 50.6511 33.6093 50.5308 33.6864L49.0603 34.6626C47.0324 36 44.3714 36.731 41.5766 36.731Z" fill="#53CBC8"/>
<path d="M23.1355 44.2684V34.1281C23.1277 33.9145 23.137 33.7008 23.1632 33.4886C23.1963 33.2097 23.3342 32.9523 23.5507 32.7653C23.7672 32.5783 24.0472 32.4749 24.3374 32.4746C24.6186 32.4821 24.8871 32.5897 25.0914 32.7768C25.2957 32.9639 25.4215 33.2174 25.4447 33.4886C25.4892 33.8408 25.5023 34.196 25.4838 34.5503V54.7699C25.4207 55.5204 24.9352 56.0133 24.2819 55.9999C23.6286 55.9865 23.1569 55.4728 23.1531 54.7126V47.9719L23.1355 44.2684Z" fill="#53CBC8"/>
<path d="M20.9297 39.1642V44.2038C20.9297 45.0653 20.4555 45.6364 19.7808 45.6169C19.1061 45.5974 18.5966 45.0153 18.5928 44.1941V34.1135C18.5928 33.2313 19.1237 32.637 19.8161 32.6712C20.5085 32.7054 20.9196 33.2386 20.9234 34.1209C20.9335 35.8048 20.9297 37.4839 20.9297 39.1642Z" fill="#53CBC8"/>
<path d="M27.6977 39.1568V35.618C27.6977 34.7956 28.1479 34.266 28.8189 34.266C29.4898 34.266 30.0069 34.8127 30.0132 35.5875C30.0393 37.9988 30.0393 40.4088 30.0132 42.8175C30.0132 43.6388 29.5087 44.1318 28.8264 44.1244C28.1442 44.1171 27.6977 43.6144 27.6914 42.7736V39.1543L27.6977 39.1568Z" fill="#53CBC8"/>
<path d="M14.0522 39.8938V36.3551C14.0522 35.5339 14.5037 35.0031 15.1746 35.0031C15.8456 35.0031 16.3614 35.5509 16.3689 36.3246C16.3916 38.7358 16.3916 41.1458 16.3689 43.5546C16.3689 44.3758 15.8645 44.87 15.1809 44.8627C14.4974 44.8554 14.0522 44.3527 14.0459 43.5107V39.8914L14.0522 39.8938Z" fill="#53CBC8"/>
<path d="M33.388 36.8787H33.3843C32.7497 36.8787 32.2354 37.3764 32.2354 37.9903V39.9183C32.2354 40.5323 32.7497 41.03 33.3843 41.03H33.388C34.0226 41.03 34.537 40.5323 34.537 39.9183V37.9903C34.537 37.3764 34.0226 36.8787 33.388 36.8787Z" fill="#53CBC8"/>
<path d="M37.9427 38.5662H37.939C37.3044 38.5662 36.79 39.0639 36.79 39.6778V50.4844C36.79 51.0984 37.3044 51.5961 37.939 51.5961H37.9427C38.5773 51.5961 39.0917 51.0984 39.0917 50.4844V39.6778C39.0917 39.0639 38.5773 38.5662 37.9427 38.5662Z" fill="#53CBC8"/>
<path d="M42.4672 38.9849H42.4634C41.8288 38.9849 41.3145 39.4826 41.3145 40.0965V49.2814C41.3145 49.8953 41.8288 50.393 42.4634 50.393H42.4672C43.1017 50.393 43.6161 49.8953 43.6161 49.2814V40.0965C43.6161 39.4826 43.1017 38.9849 42.4672 38.9849Z" fill="#53CBC8"/>
<path d="M47.0541 37.9365H47.0503C46.4158 37.9365 45.9014 38.4342 45.9014 39.0482V43.0104C45.9014 43.6243 46.4158 44.122 47.0503 44.122H47.0541C47.6886 44.122 48.203 43.6243 48.203 43.0104V39.0482C48.203 38.4342 47.6886 37.9365 47.0541 37.9365Z" fill="#53CBC8"/>
</g>
<defs>
<clipPath id="clip0">
<rect width="39" height="48" fill="white" transform="translate(12 8)"/>
</clipPath>
</defs>
</svg>

<svg viewBox="0 0 64 64" fill="none" xmlns="http://www.w3.org/2000/svg">
    <circle cx="32" cy="32" r="32" fill="#0E132E"/>
    <g clip-path="url(#a)">
        <path d="M31.152 8c-4.92 0-9.638 1.89-13.117 5.257-3.478 3.365-5.433 7.93-5.433 12.69 0 1.135.11 2.266.328 3.38l2.397-1.586c4.213-2.795 11.046-2.795 15.26 0l2.514 1.666 1.362.905c3.798 2.519 9.95 2.519 13.747 0l1.119-.74a17.395 17.395 0 0 0-.159-7.89 17.743 17.743 0 0 0-3.639-7.062 18.486 18.486 0 0 0-6.416-4.872 19.083 19.083 0 0 0-7.956-1.74L31.152 8Z" fill="#F2B705"/>
        <path d="M41.577 36.731c-2.795 0-5.468-.732-7.48-2.075l-3.875-2.568c-1.854-1.234-4.344-1.914-7.007-1.914-2.662 0-5.153.677-7.008 1.914l-2.504 1.66a1.117 1.117 0 0 1-.815.166 1.091 1.091 0 0 1-.698-.44 1.025 1.025 0 0 1-.171-.788 1.05 1.05 0 0 1 .454-.675l2.505-1.656c2.215-1.464 5.139-2.277 8.237-2.277 3.1 0 6.023.808 8.238 2.277l3.878 2.57a12.283 12.283 0 0 0 6.25 1.702c2.205 0 4.368-.589 6.25-1.702l1.47-.976a1.107 1.107 0 0 1 .82-.177c.143.025.278.077.4.152.12.076.225.175.307.29a1.037 1.037 0 0 1 .17.796 1.034 1.034 0 0 1-.163.384 1.07 1.07 0 0 1-.304.292l-1.47.977C47.031 36 44.37 36.73 41.576 36.73Z" fill="#53CBC8"/>
        <path d="M23.136 44.268v-10.14a4.02 4.02 0 0 1 .027-.64c.033-.278.171-.536.388-.723.216-.187.496-.29.786-.29.282.007.55.115.754.302.205.187.33.44.354.712.044.352.057.707.039 1.061v20.22c-.063.75-.549 1.243-1.202 1.23-.653-.014-1.125-.527-1.129-1.287v-6.741l-.017-3.704Z" fill="#53CBC8"/>
        <path d="M20.93 39.164v5.04c0 .861-.474 1.432-1.15 1.413-.674-.02-1.183-.602-1.187-1.423v-10.08c0-.883.53-1.477 1.223-1.443.693.034 1.104.568 1.107 1.45.01 1.684.007 3.363.007 5.043Z" fill="#53CBC8"/>
        <path d="M27.698 39.157v-3.539c0-.822.45-1.352 1.12-1.352.672 0 1.189.547 1.195 1.322.026 2.41.026 4.82 0 7.23 0 .82-.504 1.314-1.187 1.306-.682-.007-1.128-.51-1.135-1.35v-3.62l.007.003Z" fill="#53CBC8"/>
        <path d="M14.052 39.894v-3.539c0-.821.452-1.352 1.123-1.352.67 0 1.186.548 1.194 1.322.023 2.41.023 4.82 0 7.23 0 .82-.505 1.315-1.188 1.308-.684-.008-1.129-.51-1.135-1.352v-3.62l.006.003Z" fill="#53CBC8"/>
        <path d="M33.388 36.879h-.004c-.634 0-1.149.497-1.149 1.111v1.928c0 .614.515 1.112 1.15 1.112h.003c.635 0 1.149-.498 1.149-1.112V37.99c0-.614-.514-1.111-1.149-1.111Z" fill="#53CBC8"/>
        <path d="M37.943 38.566h-.004c-.635 0-1.149.498-1.149 1.112v10.806c0 .614.514 1.112 1.149 1.112h.004c.634 0 1.149-.498 1.149-1.112V39.678c0-.614-.515-1.112-1.15-1.112Z" fill="#53CBC8"/>
        <path d="M42.467 38.985h-.004c-.634 0-1.148.498-1.148 1.111v9.185c0 .614.514 1.112 1.148 1.112h.004c.635 0 1.15-.498 1.15-1.112v-9.184c0-.614-.515-1.112-1.15-1.112Z" fill="#53CBC8"/>
        <path d="M47.054 37.937h-.004c-.634 0-1.149.497-1.149 1.111v3.962c0 .614.515 1.112 1.15 1.112h.003c.635 0 1.149-.498 1.149-1.112v-3.962c0-.614-.514-1.111-1.149-1.111Z" fill="#53CBC8"/>
    </g>
    <defs>
        <clipPath id="a">
            <path fill="#fff" transform="translate(12 8)" d="M0 0h39v48H0z"/>
        </clipPath>
    </defs>
</svg>
